X: 33802
T: Ray's Classic
R: polka
M: 2/4
K: Amajor
|:A2 AE|FA FE|FB BA/B/|cB Bc/B/|
A>B AE|FA FE|FB BA/B/|1 cA A2:|2 cA A/B/c/d/||
|:e2 eA|f2 f2|Bf Bf|g2 g2|
cg cg|ab/a/ gf|ec BA/B/|1 cA A/B/c/d/:|2 cA Ac/B/||

